X:6821
T:Harlequin Hornpipe. GS.053
M:2/2
L:1/8
Q:180
S:George Spencer m/s, Leeds,1831
R:Hornpipe
O:England
A:Leeds
N:'George Spencer Book Leeds 1831' written at end
N: 1 - this note is written as 'D', but by comparison with bar 5 and
N:because it makes more sense, here shown as 'E'..Cherri.
H:1831
Z:vmp.Cherri Graebe
K:BB major
FA | B2B2 (Bd)(c"1"e) |  d2d2 (df)(eg) |  fbag fedc | (BA)(cA) ecAF | B2
B2 (Bd)(ce) | !
d2d2 dfeg | fbag fddc | B2B2B2 :||: FE | DBFB DBFB | EBGB EBGB |!
ecAc ecAc | dBEB dBEB |  DBFB DBFB | EBGB EBGB | ecAc ecAF | B2B2 "pause
"B2 :||
